!!!OTL: Linger Awhile
!!!COM: Rose, Vincent
!!!LYR: Owens, Harry
!!!LAR: Frey, Hugo
!! "Linger Awhile" by Vincent Rose; words by Harry Owens
!! from "Barbershop Memories" compiled and arranged by Hugo Frey
!! copyright 1975 by EMI Music Publ. Ltd.; p. 10; alla breve; in F major
!! NOTE:  The second ending is encoded.  Measure 34 contains half-note triplets.
**kern	**kern	**kern	**kern
*Ivox	*Ivox	*Ivox	*Ivox
*M2/2	*M2/2	*M2/2	*M2/2
*F:	*F:	*F:	*F:
2C	2F	2C	2A
=1	=1	=1	=1
2FF	2C	2D	2A
[2FF	[2C	[2F	[2A
=2	=2	=2	=2
2FF]	2C]	2F]	2A]
2FF	{4D	2G	2B-
.	4E}	.	.
=3	=3	=3	=3
2FF	2F	2A	2c
{2F	{2A	[2c	[2f
=4	=4	=4	=4
2A}	2c}	2c]	2f]
2A-	2Bn	2c#	2f
=5	=5	=5	=5
2G	2B-	2d	2e
[2C	[2G	[2E	[2B-
=6	=6	=6	=6
2C]	2G]	2E]	2B-]
2C	2F#	2D#	2A
=7	=7	=7	=7
2C	[1G	[1E	[1B-
2D	.	.	.
=8	=8	=8	=8
2C	2G]	2E]	2B-]
2GG	2E	2C	2B-
=9	=9	=9	=9
2GG	2F	2C	2B-
[2C	[2G	[2E	[2B-
=10	=10	=10	=10
2C]	2G]	2E]	2B-]
2C	2E	2G	2B-
=11	=11	=11	=11
2C	{4F	2B-	2G
.	4D}	.	.
[2C	{2E	[2d	[2B-
=12	=12	=12	=12
2C]	2G}	2d]	2B-]
2E	2G#	2d#	2Bn
=13	=13	=13	=13
2F	2A	2e	2c
[2C	[2F	[2A	2c
=14	=14	=14	=14
2D]	2F]	2A]	2c
2D-	2F	2G#	2Bn
=15	=15	=15	=15
2C	[1F	[1A	[1c
2AA	.	.	.
=16	=16	=16	=16
2FF	2F]	2A]	2c]
2C	2E	2c	2B-
=17	=17	=17	=17
2D	2F	2f	2A
[2D	[2F	[2d	[2A
=18	=18	=18	=18
2D]	2F]	2d]	2A]
2D	2A	2f	2d
=19	=19	=19	=19
4AA	4G	4e	4c#
4AA	4E	4c#	4A
[2C#	[2E	[2A	[2G
=20	=20	=20	=20
2C#]	2E]	2A]	2G]
2AA	2G	2c#	2A
=21	=21	=21	=21
[2D	[2F#	{2d	[2A
{2D]	2F#_	[2A	2A_
=22	=22	=22	=22
2C}	2F#]	2A}]	2A]
2AA	2F#	2d	2c
=23	=23	=23	=23
4GG	4Fn	4A	4Bn
4GG	4F	4G	4B
[2GG	[2F	[2D	[2B
=24	=24	=24	=24
2GG]	2F]	2D]	2B]
2C	2E	2C	2B-
=25	=25	=25	=25
2FF	2C	2D	2A
[2FF	[2C	[2F	[2A
=26	=26	=26	=26
2FF]	2C]	2F]	2A]
2FF	{4D	2G	2B-
.	4E}	.	.
=27	=27	=27	=27
2FF	2F	2A	2c
{2F	{2A	[2c	[2f
=28	=28	=28	=28
2A}	2c}	2c]	2f]
2A-	2Bn	2c#	2f
=29	=29	=29	=29
2G	2B-	2d	2f
[2C	[2B-	[2cn	[2e
=30	=30	=30	=30
2C]	2B-]	2c]	2e]
2C	2B-	2d	2e
=31	=31	=31	=31
[1F	{2B-	{2d	[1f
.	[2A	[2c	.
=32	=32	=32	=32
2F]	2A}]	2c}]	2f]
2BB-	2A-	2d	2f
=33	=33	=33	=33
1AA	1G	1c#	1f
=34	=34	=34	=34
3AA-	3G-	3cn	3e
3AA-	3G-	3c	3e
3G-	3A-	3c	3e-
=35	=35	=35	=35
1F;	1A;	1c;	1d;
==	==	==	==
*-	*-	*-	*-
